X: 14564
T: Gan Ainm
R: hornpipe
M: 4/4
K: Gmajor
|:(3DEF|G>FG>A B>GA>G|F>^EF>G A>B (3cBA|d>fe>^c d>=cA>F|G>BA>G F>GE>F|
G2 G>A B>GA>G|F2 F>G A>Bc>A|d>fe>^c d2 (3=cAF|G>BA>F G2:|
|:(3ABc|d2 e2 =f>ed>B|G>cc>B c>ed>c|B2 (3Bcd c>BA>G|F>AE>A D>c (3cBA|
D2 (3FGA B>GA>G|F>^EF>G A2 (3cBA|d>fe>^c d>=cA>F|1 G>BA>F G>D:|2 G2 (3AGF G2||

